assets/images/visa_logo.svg

<svg fill="none" height="48" viewBox="0 0 70 48" width="70" xmlns="http://www.w3.org/2000/svg"><path clip-rule="evenodd" d="m21.2505 32.5165h-4.2406l-3.18-12.1318c-.1509-.558-.4714-1.0514-.9428-1.2839-1.1765-.5843-2.4729-1.0494-3.8871-1.2839v-.4671h6.8313c.9429 0 1.65.7016 1.7678 1.5165l1.65 8.751 4.2386-10.2675h4.1227zm8.717 0h-4.0049l3.2978-15.1667h4.0049zm8.4792-10.9651c.1179-.8168.825-1.2839 1.65-1.2839 1.2964-.1173 2.7085.1173 3.8871.6996l.7071-3.2655c-1.1786-.4671-2.4749-.7016-3.6514-.7016-3.8871 0-6.7156 2.1008-6.7156 5.0165 0 2.2181 2.0035 3.3827 3.4178 4.0843 1.53.6996 2.1193 1.1667 2.0014 1.8663 0 1.0494-1.1785 1.5165-2.355 1.5165-1.4142 0-2.8285-.3498-4.1228-.9342l-.7071 3.2675c1.4142.5823 2.9443.8169 4.3585.8169 4.3585.1152 7.0671-1.9836 7.0671-5.1338 0-3.9671-5.5371-4.1996-5.5371-5.9486zm19.5533 10.9651-3.18-15.1667h-3.4156c-.7072 0-1.4143.4671-1.65 1.1667l-5.8885 14h4.1228l.8229-2.2161h5.0656l.4714 2.2161zm-6.0064-11.0823 1.1765 5.716h-3.2978z" fill="#3ab0e2" fill-rule="evenodd"/></svg>

<svg width="70" height="48" viewBox="0 0 70 48" fill="none" xmlns="http://www.w3.org/2000/svg">
<path fill-rule="evenodd" clip-rule="evenodd" d="M21.2505 32.5165H17.0099L13.8299 20.3847C13.679 19.8267 13.3585 19.3333 12.8871 19.1008C11.7106 18.5165 10.4142 18.0514 9 17.8169V17.3498H15.8313C16.7742 17.3498 17.4813 18.0514 17.5991 18.8663L19.2491 27.6173L23.4877 17.3498H27.6104L21.2505 32.5165ZM29.9675 32.5165H25.9626L29.2604 17.3498H33.2653L29.9675 32.5165ZM38.4467 21.5514C38.5646 20.7346 39.2717 20.2675 40.0967 20.2675C41.3931 20.1502 42.8052 20.3848 43.9838 20.9671L44.6909 17.7016C43.5123 17.2345 42.216 17 41.0395 17C37.1524 17 34.3239 19.1008 34.3239 22.0165C34.3239 24.2346 36.3274 25.3992 37.7417 26.1008C39.2717 26.8004 39.861 27.2675 39.7431 27.9671C39.7431 29.0165 38.5646 29.4836 37.3881 29.4836C35.9739 29.4836 34.5596 29.1338 33.2653 28.5494L32.5582 31.8169C33.9724 32.3992 35.5025 32.6338 36.9167 32.6338C41.2752 32.749 43.9838 30.6502 43.9838 27.5C43.9838 23.5329 38.4467 23.3004 38.4467 21.5514ZM58 32.5165L54.82 17.3498H51.4044C50.6972 17.3498 49.9901 17.8169 49.7544 18.5165L43.8659 32.5165H47.9887L48.8116 30.3004H53.8772L54.3486 32.5165H58ZM51.9936 21.4342L53.1701 27.1502H49.8723L51.9936 21.4342Z" fill="#3AB0E2"/>
</svg>
